X:1
T:O God, to Us Show Mercy
T:Text: Psalm 67; vers. Psalter, 1887, alt. Tune: J. Michael Haydn, 1737-1806, adapt.
T:76 76 D OFFERTORIUM www.hymnary.org/text/o_god_to_us_show_mercy_and_bless_us_in_t
T:O God, to Us Show Mercy
T:This hymn is in the public domain. You may freely use this score for personal and congregational worship. If you reproduce the score, please credit Hymnary.org as the source. 
T:This hymn is in the public domain. You may freely use this score for personal and congregational worship. If you reproduce the score, please credit Hymnary.org as the source. 
Z:This hymn is in the public domain. You may freely use this score for personal and congregational worship. If you reproduce the score, please credit Hymnary.org as the source.
%%score ( 1 2 ) ( 3 4 )
L:1/8
M:4/4
K:C
V:1 treble nm="SOPRANO ALTO" snm="S. A."
V:2 treble 
V:3 bass nm="TENOR BASS" snm="T. B."
V:4 bass 
V:1
"^1""^2""^3" EF | G2 c2 cB AB | c4 G2 GE | D2 E2 F2 E2 | D6 | EF | G2 c2 cB AB | c4 G2 A2 | %8
w: O *|God, to us * show _|mer- cy and *|bless us in your|grace,|and *|cause to shine _ up- *|on us the|
w: Let *|all the peo- * ples *|praise you, let *|all the na- tions|sing;|in *|ev- ery land * let *|prais- es and|
w: Let *|all the peo- * ples *|praise you, let *|all the na- tions|sing.|Then _|earth in rich * a- *|bun- dance to|
 B2 cA G2 ^F2 | G6 | GE | D2 D2 A2 GF | F4 E2 GE | D2 D2 A2 GF | E6 |1 EF | G2 c2 cB AB | %17
w: bright- ness * of your|face,|so *|that your way most _|ho- ly on *|earth may soon be *|known,|and *|un- to ev- * ery *|
w: songs of * glad- ness|ring;|for *|you will judge the *|peo- ples in *|truth and right- eous- *|ness,|and *|on the earth _ all *|
w: us her * fruit will|bring.|The *|LORD our God will *|bless us, our *|God will bless- ing *|send,|and *|all the earth _ will *|
 c4 G2 c2 | A2 F2 E2 D2 | C6 x2 |] %20
w: peo- ple your|sav- ing grace be|shown.|
w: na- tions will|your just rule con-|fess.|
w: fear him to|its re- mot- est|end.|
V:2
 C2 | C2 E2 D2 G2 | (G2 F2) E2 C2 | D2 C2 A,B, C2 | (C2 B,4) | B,2 | CD E2 D2 D2 | (C2 F2) E2 E2 | %8
 E2 E2 E2 ^D2 | E6 | C2 | C2 C2 C2 B,2 | (B,2 A,B,) C2 C2 | D2 D2 F2 DC | B,6 |1 C2 | D2 E2 D2 ED | %17
 (C2 F2) E2 C2 | C2 C2 C2 B,2 | G,6 x2 |] %20
V:3
 G,2 | G,2 G,2 G,2 D2 | C4 C2 G,2 | A,2 G,2 F,2 G,2 | G,6 | G,2 | G,2 G,2 G,2 G,2 | G,4 C2 A,2 | %8
 G,2 A,C B,2 B,2 | B,6 | G,2 | A,2 A,2 F,2 G,2 | G,4 G,2 G,2 | A,2 A,2 A,2 B,A, | (A,2 ^G,4) |1 %15
 A,2 | B,2 A,2 G,2 G,2 | G,4 CB, A,G, | F,G, A,2 G,2 G,F, | E,6 x2 |] %20
V:4
 C,D, | E,2 C,2 G,2 F,2 | (E,2 D,2) C,2 E,2 | F,2 E,2 D,2 C,2 | G,,6 | G,F, | E,2 C,2 G,2 F,2 | %7
 (E,2 D,2) C,2 C,2 | B,,2 A,,2 B,,2 B,,2 | E,6 | E,2 | F,2 F,2 D,2 G,2 | C,4 C,2 E,2 | %13
 F,2 F,E, D,2 D,2 | E,6 |1 A,,2 | G,,2 G,,2 G,2 F,2 | (E,2 D,2) C,2 F,E, | F,2 D,2 G,2 G,,2 | %19
 C,6 x2 |] %20

